X: 33943
T: Red-Speckled Hen, The
R: jig
M: 6/8
K: Bminor
BBB c2A|BBB d2e|fBB d2e|c2B cAA|BBB c2A|BBB d2e|f2d edc|BBB f3:|
d2e fBB|BfB d2e|fBB d2e|c2B cAA|d2e fBB|
BfB d2e|f2d edc|BBB f3|d2e fBB|BfB d2e|
fBB d2e|c2B cAA|BBB c2A|BBB d2e|f2d edc|BBB f3
|:BBB BBB|fBc d2e|fBB d2e|c2B cAA|BBB BBB|fBc d2e|f2d edc|BBB f3:|
d2e fee|fBB f3|d2e fBB|c2B cAA|d2e fee|
fBB d2e|f2d edc|BBB f3|d2e fee|fBB f3|
d2e fBB|c2B cAA|BBB BBB|fBc d2e|f2d edc|BBB f3||

